2025-07-30 14:36:16.228603 - provider1 - Successful login
2025-07-30 14:36:25.228129 - provider1 - Uploaded audio file
2025-07-30 14:36:47.580498 - provider1 - Recorded new audio
2025-07-30 14:36:50.769820 - provider1 - Generated SOAP note
2025-07-30 14:37:00.779927 - provider1 - Uploaded audio file
2025-07-30 14:38:49.441148 - provider1 - Successful login
2025-07-30 14:38:55.811434 - provider1 - Uploaded audio file
2025-07-30 14:47:07.603794 - provider1 - Successful login
2025-07-30 14:47:17.828888 - provider1 - Uploaded audio file
2025-07-30 14:47:22.899719 - provider1 - Generated SOAP note
2025-07-30 14:47:37.441053 - provider1 - Recorded new audio
2025-07-30 14:47:42.346095 - provider1 - Generated SOAP note
2025-07-30 14:48:10.827078 - provider1 - Uploaded audio file
2025-07-30 14:48:15.524489 - provider1 - Generated SOAP note
2025-07-30 14:51:33.322260 - provider1 - Successful login
2025-07-30 14:51:40.159375 - provider1 - Uploaded audio file
2025-07-30 14:51:46.357387 - provider1 - Generated SOAP note
2025-07-30 14:53:56.465170 - provider1 - Recorded new audio
2025-07-30 14:54:07.811714 - provider1 - Generated SOAP note
2025-07-30 15:00:09.826234 - provider1 - Successful login
2025-07-30 15:00:15.924579 - provider1 - Uploaded audio file
2025-07-30 15:00:20.925022 - provider1 - Generated SOAP note
2025-07-30 15:09:06.246299 - provider1 - Successful login
2025-07-30 15:09:11.957089 - provider1 - Uploaded audio file
2025-07-30 15:09:16.920968 - provider1 - Generated SOAP note
2025-07-31 12:42:35.504236 - provider1 - Successful login
2025-07-31 12:42:41.329662 - provider1 - Uploaded audio file
2025-07-31 12:42:46.760757 - provider1 - Generated SOAP note
2025-07-31 12:42:50.721106 - provider1 - Uploaded audio file
2025-07-31 12:42:55.215580 - provider1 - Generated SOAP note
2025-07-31 12:42:57.696070 - provider1 - Uploaded audio file
2025-07-31 12:43:02.727953 - provider1 - Generated SOAP note
Z0FBQUFBQm9pN3pqaXloZHRuMXJ5bmdjZ3B1YkFyQlc4UUxPZVg3MjNBal9nYzlBSWNMOGJpU3ZyM1RmZzZJT2Z6eEtPMTRnNDF6dm5NNmtJNXBaLTJYcm9JcmJHQlZGN0FITzBsbjBiN096a1o4OUtjS3BZWExLc1ljNGd2d3Q2LTVmUG1ydWt0ZTZDMlhtSHlWdU82RS1RcGJnUWk5a1NnPT0=
Z0FBQUFBQm9pN3pxcEhzT1pHb1B3eVdTYlcxN3loWlBCZldpWmtFSkRadUlLMTNjdHBHY2Rfa2xGNFhoRS1JdVh6ZGFRN2VaZHIteW1aSzFSRnp1ckEzblFkYjhJQnZ2czZicXBIZGx4SHZOZEluREx5QjJPUUktdVM3V0lmZVN0cFZ0SUYtamotWk1wdExPbHpEdVBaOUw5aXdqY1ljXzJRPT0=
Z0FBQUFBQm9pN3p2V2M3LUdNSWl2Qi1NSVUtS1ZIaWRoU19NUzUydG5aVGU4RllzZ2hCd0N0QU8xalptRU54MFl3RWFKMFdXSWxMSkVBek9xVmV0X1l2SW5icENxZFdJaFZfNG04VWpaWUgyQ1V4QV9MZXNJZ05OZENTRUpNZkZjbUoyY2NHbmVjWTZEVWxybkg1dXQzVWhwMVZ5SVRCRmJRPT0=
Z0FBQUFBQm9pNzFmWlhpVjdwLW5aWk4zbWlQSkszZXo4ZWhoUzJqVmVsVVpueUw4dWlmay1KbWVLYnBCelBvencxUlM4YU96S1RLcjFVdERtckpFODdMSDVjV1UxamhTVEpUQjNwWjk5TDN2aFJVNGY0MUQwRENzZ3BlV2RDR2E1Nk5wZnNaTE1zRktaRjVNU0kzUmsxX2FKU001Sk16NzFBPT0=
Z0FBQUFBQm9pNzFtbWVreXpfWGt6N3VoSXpla3B1dGZya2FfSExGbFk4a0ZTN052dGRtRHFFdHp3Y0t5WjhCdmV4cE90QXFjcEJXSDhlSFNpN1ROOEpENktRSmgtQmJXYXNBY3JrMnRUSTl6SG1LM3FvVms1WkprR28yZkFFN3hINUtPd3ZTVFpRdVhXbVg3dGRGaDNxU3BXSzQ1blhYRU13PT0=
Z0FBQUFBQm9pNzFxM2Z1WVl5QU9UUDFsT2VycmFQN1hWV18xVUtCSkFMeWw3UkJuczRFYUZ0aUJSQTQyTDVUSjdBUTBxcXNXWG9abWpWS0M1ekJRVUEyWmF2bHh2ajlocEpFRG1oTHQzcy1hMnFocXZKRFlWSEgyelF5bDdqSG9oM1RMZE5vWWE2eEZFYm4tTk1vTEpya29jUG5uaDRNejVRPT0=
Z0FBQUFBQm9pNzVkbnJyRnA5bjlBbHc5UlRRMXk2SC0zZ1JpYm1UUnQzSVBnclFhdlQwVFdoU3VjNGkxVjFsWWtPZGRDMUMzRWtYZjJZd195MmU0Y0xybUFvNUxOekVFSnVOLThXNnBka1RKZnFVajQ3T3ZCbHFYUHJWZWdZWERuUWJwZUlpcUg4TzB0SFRoejh1ZmlZekFjcnZHLW5iYzB3PT0=
Z0FBQUFBQm9pNzVqQjBQcXVULXlVYldMN0FRaTB1UHVzQ1NHZFBoOXlBNlFmSkExeWJGMXRrbUlSSVNJWVEzSFBfM0ZpX2doQTYtcVA5U3ZhdjFGaDJhdC10SjVVUG5yYzlIMENhWVNwTFhUdXlqR3pfUjNkcXhGMHFnS3NTVUhaeWdrcVdtUXNEVVN5WHdpWW5YTDRPdmxJTVJFZFM1RGtnPT0=
Z0FBQUFBQm9pNzVveGZoOE0yTENoanBlbVVsdU92Rjdra3dBRXZVVXZ0RnF0MEk0YVZERlRjd3plQU96TzU1Tzh3U21NQ01LY082a2NZRWYwNDFZTl9VVHA1eUZTcndmY0RJanp0YjhkQWRzaGNIdHdpSUdLbi1jNnpIc1p3OEYtMTR4VUVsakRVVVBwS0RmV2NDME85eERLcVlodU4yMURBPT0=
Z0FBQUFBQm9qQk9fbzRSU245MGFLNlN0Tlk0S2RueTJRSERUUnNwOE5TQ19XaExfSHNpRnE0dFpiUDBfUFNJbU5qV0c2b0ZjX1F2YnZZU2k5SWJCVUNyMWFEVHlwWWNDTmJRS3pyUEJRWHliYVdQcWdyQ2VUczFadV9jT3J2djIxU2FuVml3cVRyVDh3cFNTMzRKOVdCcjhaNWxqc1ZaYjRRPT0=
Z0FBQUFBQm9qQlBHc01nN2FfVkFMbWlkdkFEODMxUzFvdFltLTZxb1ppRGdwb3BOWElINFJrYTFHYnR3UTk1V1JzdjhBenJwRUZDVWExdFRZTFhrU1BZcmFqcnlVcVZTN3UtMDB2S0Y4bTlxa0szcVktSTRWcVVraTRPeVhJMDVQQjN3eG5hNjNIanF4Z2VPYUJWT1BVMVdMQzhEeUVnbDNRPT0=
Z0FBQUFBQm9qQlBMYTBTVkU1elhhVDJlNmVsTFFTdU92OVNuN2FDQjNzNkphWFg2SEFydjlyNmgxLWRKbTFpeWZVNG1FVzdMNzN6b2ZBNUszWktHSV9NUWx6eWtYUFBOdzVMbS1mODktYVB3cTlsaUo4R0tCOTVQZEdfYWZlaWw2aEVxekE4U1BFVzRXT2hiMDlKdHVfWmNFUzhKMmRuM0V3PT0=
Z0FBQUFBQm9qQlI4OE84Wk1EcHV3aUFVbTRGRkFoMWFxSWtxQUxFU2tLZnJRY2h2aVktdFZBbnF0bkdKdmZTWlpQQnZQRnZNbmZfU0RhZEJNd0lnRGQ2TzNNNmMzaDNzOE11SGpyUVdiRXZHOTlrRmVXM3JhQzFsQWFjbjRodTFSekRXYlRadXNCZU5HZnNsejlydlFJRlVwVkplNXhBQm13PT0=
Z0FBQUFBQm9qQlNGSjJpQktRT245MTFHcTNKS3l0VHJ0Uk5vMTdNY0lYdnpHRTcxT2tuNzM0Z3ozNjNOZ0M0cGhsdk1PNjByXzdlWER1NEdHeUdIUmV4Q1JTLVp6UHBESzQzWE5jWnlpaU95Y2dwMHFuY09tbGQtcy10eWswcThwc1YyQ3hzaExHSXk2ZUozX09ONDFVT09OWEVVVllwMG5nPT0=
